!!!!SEGMENT: pl-sa--303-a-vii-63--002_lechleitner-ferdinand-simon--o-beata-scholastica-columba-christi-unica.krn
!!!cenid: 17xx:404
!!!COM: Lechleitner, Ferdinand Simon
!!!COM-rismid: pe30001903
!!!CDT: ~1700-~1800
!!!CNT:
!!!OTL: O Beata Scholastica – Columba Christi unica
!!!PDT:
!!!AGN: Sacred
!!!SMS-siglum: PL-SA
!!!SMS-shelfmark: 303/A VII 63
!!!SMS-shelfwork: 001-002 M
!!!NIFC-rismid: 1001039510
!!!URL-scan: http://bc.bdsandomierz.pl/dlibra/publication/1608/edition/1576/content
!!!ONB-nifc: UWAGA: części: Alto Solo (O Beata Scholastica), Columba Christi unica, Tutti Chorus (O Beata Scholastica)
**kern	**fb	**kern	**dynam	**kern	**dynam	**kern	**dynam	**kern	**kern	**kern	**kern	**text	**kern	**kern
*part10	*	*part9	*part9	*part8	*part8	*part7	*part7	*part6	*part5	*part4	*part3	*part3	*part2	*part1
*group	*	*group3	*group3	*group3	*group3	*group3	*group3	*group2	*group2	*group2	*group2	*group2	*group1	*group1
*staff10	*	*staff9	*	*staff8	*	*staff7	*	*staff6	*staff5	*staff4	*staff3	*staff3	*staff2	*staff1
*I"Organo.	*	*I"Alto Viola Obligata.	*	*I"Violino 2.do	*	*I"Violino 1.mo	*	*I"Baſso.	*I"Tenore.	*I"Alto.	*I"Canto.	*	*I"Clarino 2.do	*I"Clarino 1.mo
*I'org	*	*I'vl	*	*I'vn 2	*	*I'vn 1	*	*I'B	*I'T	*I'A	*I'S	*	*I'Clar 2	*I'Clar 1
*clefF4	*	*clefC3	*	*clefG2	*	*clefG2	*	*clefF4	*clefC4	*clefC3	*clefC1	*	*clefG2	*clefG2
*k[]	*	*k[]	*	*k[]	*	*k[]	*	*k[]	*k[]	*k[]	*k[]	*	*k[]	*k[]
*M2/2	*	*M2/2	*	*M2/2	*	*M2/2	*	*M2/2	*M2/2	*M2/2	*M2/2	*	*M2/2	*M2/2
*met(c|)	*	*met(c|)	*	*met(c|)	*	*met(c|)	*	*met(c|)	*met(c|)	*met(c|)	*met(c|)	*	*met(c|)	*met(c|)
=1	=1	=1	=1	=1	=1	=1	=1	=1	=1	=1	=1	=1	=1	=1
*	*above	*	*	*	*	*	*	*	*	*	*	*	*	*
!LO:TX:a:i:t=ſolo	!	!	!	!	!	!	!	!	!	!	!	!	!	!
!LO:TX:b:i:t=Aria	!	!LO:TX:b:i:t=Aria	!	!LO:TX:b:i:t=Aria	!	!LO:TX:a:i:t=Allegro. ſ.	!	!	!	!	!LO:TX:a:i:t=Allegro.	!	!	!
!	!	!	!	!	!	!	!	!LO:TX:a:t=P:problem:w źródle "Aria Canto Solo Tacet." zapisane na pięciolinii	!LO:TX:a:t=P:problem:w źródle "Aria Canto Solo Tacet." zapisane na pięciolinii	!LO:TX:a:t=P:problem:w źródle "Aria Canto Solo Tacet." zapisane na pięciolinii	!	!	!LO:TX:a:t=P:problem:w źródle "Aria Canto Solo Tacet." zapisane na pięciolinii	!LO:TX:a:t=P:problem:w źródle "Aria Canto Solo Tacet." zapisane na pięciolinii
!LO:TX:a:i:t=Allegro.	!	!LO:TX:a:i:t=Allegro. ſolo.	!	!LO:TX:a:i:t=Allegro.	!	!LO:TX:b:i:t=Aria.	!	!LO:TX:i:a:t=Aria Canto ſolo \nTacet.	!LO:TX:i:a:t=Aria Canto ſolo \nTacet.	!LO:TX:i:a:t=Aria Canto ſolo \nTacet.	!LO:TX:b:i:t=Aria.	!	!LO:TX:i:a:t=Aria Canto ſolo \nTacet.	!LO:TX:i:a:t=Aria Canto ſolo \nTacet.
!	!	!	!	!	!	!	!	!	!	!	!LO:N:vis=00	!	!	!
4G	.	4d	.	4r	.	8gL	.	1ryy	1ryy	1ryy	00r	.	1ryy	1ryy
.	.	.	.	.	.	16gL	.	.	.	.	.	.	.	.
.	.	.	.	.	.	16aJJ	.	.	.	.	.	.	.	.
4r	.	4r	.	8r	.	16bLL	.	.	.	.	.	.	.	.
.	.	.	.	.	.	16cc	.	.	.	.	.	.	.	.
.	.	.	.	16gLL	.	16b	.	.	.	.	.	.	.	.
.	.	.	.	16aJJ	.	16ccJJ	.	.	.	.	.	.	.	.
8GL	.	8r	.	8bL	.	8ddL	.	.	.	.	.	.	.	.
8G	.	8dL	.	8bJ	.	8ddJ	.	.	.	.	.	.	.	.
8G	.	8d	.	8bL	.	8ddL	.	.	.	.	.	.	.	.
8DJ	X #	8dJ	.	16ccL	.	16eeL	.	.	.	.	.	.	.	.
.	.	.	.	16aJJ	.	16ff#XJJ	.	.	.	.	.	.	.	.
=2	=2	=2	=2	=2	=2	=2	=2	=2	=2	=2	=2	=2	=2	=2
8GGL	.	4d	.	8bL	.	8ggL	.	1ryy	1ryy	1ryy	.	.	1ryy	1ryy
8DJ	X #	.	.	16ddL	.	16ff#XL	.	.	.	.	.	.	.	.
.	.	.	.	16ccJJ	.	16eeJJ	.	.	.	.	.	.	.	.
!LO:TX:t=P:problem:mixed beam	!	!	!	!	!	!	!	!	!	!	!	!	!	!
8G\L	.	8r	.	8bL	.	8ddL	.	.	.	.	.	.	.	.
8GG/J	.	8d	.	8gJ	.	16ggL	.	.	.	.	.	.	.	.
.	.	.	.	.	.	16bJJ	.	.	.	.	.	.	.	.
8DL	7: #:	8f#XL	.	8aL	.	8ccL	.	.	.	.	.	.	.	.
8D	.	8f#	.	16f#XL	.	16aL	.	.	.	.	.	.	.	.
.	.	.	.	16gJJ	.	16bJJ	.	.	.	.	.	.	.	.
8D	.	8f#	.	8aL	.	8ccL	.	.	.	.	.	.	.	.
8DJ	.	8f#J	.	16ccL	.	16aaL	.	.	.	.	.	.	.	.
.	.	.	.	16aJJ	.	16ccJJ	.	.	.	.	.	.	.	.
=3	=3	=3	=3	=3	=3	=3	=3	=3	=3	=3	=3	=3	=3	=3
8DL	7 #	8f#XL	.	8aL	.	8ccL	.	1ryy	1ryy	1ryy	.	.	1ryy	1ryy
8DJ	.	8f#J	.	16gL	.	16bL	.	.	.	.	.	.	.	.
.	.	.	.	16f#XJJ	.	16aJJ	.	.	.	.	.	.	.	.
8GGL	.	8dL	.	8gL	.	8bL	.	.	.	.	.	.	.	.
8DJ	X #	8f#XJ	.	8f#XJ	.	8ddJ	.	.	.	.	.	.	.	.
8AL	X #	8AL	.	8eL	.	(>16eeLL	.	.	.	.	.	.	.	.
.	.	.	.	.	.	16cc#XJ)	.	.	.	.	.	.	.	.
8D	X #	8A	.	8f#X	.	8ddJ	.	.	.	.	.	.	.	.
8A	X #	8A	.	8e	.	(>16eeLL	.	.	.	.	.	.	.	.
.	.	.	.	.	.	16cc#XJ)	.	.	.	.	.	.	.	.
8DJ	X #	8AJ	.	8f#XJ	.	8ddJ	.	.	.	.	.	.	.	.
=4	=4	=4	=4	=4	=4	=4	=4	=4	=4	=4	=4	=4	=4	=4
!LO:TX:t=P:problem:mixed beam	!	!	!	!	!	!	!	!	!	!	!	!	!	!
8A\L	7 #	4A	.	8eeL	.	8ggL	.	1ryy	1ryy	1ryy	.	.	1ryy	1ryy
8AA/J	.	.	.	16ddL	.	16ff#XL	.	.	.	.	.	.	.	.
.	.	.	.	16cc#XJJ	.	16eeJJ	.	.	.	.	.	.	.	.
!LO:TX:t=P:problem:mixed beam	!	!LO:TX:t=P:problem:mixed beam	!	!	!	!	!	!	!	!	!	!	!	!
8D\L	X #	8A/L	.	8ddL	.	8ff#XL	.	.	.	.	.	.	.	.
8dJ	.	8a\J	.	8ddJ	.	8ff#J	.	.	.	.	.	.	.	.
!	!	!LO:SIC:custos a:v	!	!	!	!	!	!	!	!	!	!	!	!
!	!	!LO:LB:g=original	!	!	!	!	!	!	!	!	!	!	!	!
8AL	7 #	8aL	.	(>16eeLL	.	(>16ggLL	.	.	.	.	.	.	.	.
.	.	.	.	16cc#XJ)	.	16eeJ)	.	.	.	.	.	.	.	.
8DJ	X #	8a	.	8ddJ	.	8ff#XJ	.	.	.	.	.	.	.	.
!	!	!	!	!	!	!LO:SIC:custos gg:v	!	!	!	!	!	!	!	!
!	!	!	!	!	!	!LO:LB:g=original	!	!	!	!	!	!	!	!
8AAL	7 #	8a	.	(>16eeLL	.	(>16ggLL	.	.	.	.	.	.	.	.
.	.	.	.	16cc#XJ)	.	16eeJ)	.	.	.	.	.	.	.	.
8DJ	X #	8aJ	.	8ddJ	.	8ff#XJ	.	.	.	.	.	.	.	.
!	!	!	!	!LO:LB:g=original	!	!	!	!	!	!	!	!	!	!
=5	=5	=5	=5	=5	=5	=5	=5	=5	=5	=5	=5	=5	=5	=5
!	!	!	!	!	!	!	!	!	!	!	!LO:N:vis=00	!	!	!
4AA	7 #	8aL	.	8eeL	.	8ggL	.	1ryy	1ryy	1ryy	00r	.	1ryy	1ryy
.	.	8aJ	.	16ddL	.	16ff#XL	.	.	.	.	.	.	.	.
.	.	.	.	16cc#XJJ	.	16eeJJ	.	.	.	.	.	.	.	.
8DL	X #	8aL	.	8ddL	.	16ff#XLL	.	.	.	.	.	.	.	.
.	.	.	.	.	.	16gg	.	.	.	.	.	.	.	.
8GJ	X 6	8gJ	.	8bJ	.	16ee	.	.	.	.	.	.	.	.
.	X 5	.	.	.	.	16ddJJ	.	.	.	.	.	.	.	.
!	!	!LO:TX:t=P:problem:mixed beam	!	!	!	!	!	!	!	!	!	!	!	!
8AL	X #	8e\L	.	8eL	.	8cc#XL	.	.	.	.	.	.	.	.
8GJ	6 5	8A/J	.	16f#XL	.	16ddL	.	.	.	.	.	.	.	.
.	.	.	.	16gJJ	.	16eeJJ	.	.	.	.	.	.	.	.
!LO:TX:t=P:problem:mixed beam	!	!	!	!	!	!	!	!	!	!	!	!	!	!
8A\L	5 4	8AL	.	8eL	.	8aL	.	.	.	.	.	.	.	.
8AA/J	X #	8AJ	.	8aJ	.	8cc#XJ	.	.	.	.	.	.	.	.
!LO:LB:g=original	!	!	!	!	!	!	!	!	!	!	!	!	!	!
=6	=6	=6	=6	=6	=6	=6	=6	=6	=6	=6	=6	=6	=6	=6
!LO:TX:t=P:problem:mixed beam	!	!	!	!	!	!	!	!	!	!	!	!	!	!
8D/L	X #	4A	.	8f#XL	.	4dd	.	1ryy	1ryy	1ryy	.	.	1ryy	1ryy
16d\L	.	.	.	8f#	.	.	.	.	.	.	.	.	.	.
16c\JJ	.	.	.	.	.	.	.	.	.	.	.	.	.	.
8BL	X 6	8r	.	8g	.	8r	.	.	.	.	.	.	.	.
8GJ	.	8g	.	8bJ	.	8dd	.	.	.	.	.	.	.	.
4C	.	4g	.	(>16ccLL	.	(>16eeLL	.	.	.	.	.	.	.	.
.	.	.	.	16b)	.	16dd)	.	.	.	.	.	.	.	.
.	.	.	.	(>16cc	.	(>16ee	.	.	.	.	.	.	.	.
.	.	.	.	16bJJ)	.	16ddJJ)	.	.	.	.	.	.	.	.
8r	.	8r	.	(>16ccLL	.	(>16eeLL	.	.	.	.	.	.	.	.
.	.	.	.	16b)	.	16dd)	.	.	.	.	.	.	.	.
8C	.	8g	.	(>16cc	.	(>16ee	.	.	.	.	.	.	.	.
.	.	.	.	16bJJ)	.	16ddJJ)	.	.	.	.	.	.	.	.
=7	=7	=7	=7	=7	=7	=7	=7	=7	=7	=7	=7	=7	=7	=7
8CL	.	8gL	.	(>16ccLL	.	(>16eeLL	.	1ryy	1ryy	1ryy	.	.	1ryy	1ryy
.	.	.	.	16b)	.	16dd)	.	.	.	.	.	.	.	.
8CJ	.	8g	.	(>16cc	.	(>16ee	.	.	.	.	.	.	.	.
.	.	.	.	16bJJ)	.	16ddJJ)	.	.	.	.	.	.	.	.
8F#XL	X 5	8f#X	.	8aL	.	8ccL	.	.	.	.	.	.	.	.
8F#J	.	8f#J	.	8aJ	.	8ccJ	.	.	.	.	.	.	.	.
4BB	X n	4f#	.	(<16bLL	.	(>16ddLL	.	.	.	.	.	.	.	.
.	.	.	.	16a)	.	16cc)	.	.	.	.	.	.	.	.
.	.	.	.	(<16b	.	(>16dd	.	.	.	.	.	.	.	.
.	.	.	.	16aJJ)	.	16ccJJ)	.	.	.	.	.	.	.	.
8r	.	8r	.	(<16bLL	.	(>16ddLL	.	.	.	.	.	.	.	.
.	.	.	.	16a)	.	16cc)	.	.	.	.	.	.	.	.
8BB	.	8f#	.	(<16b	.	(>16dd	.	.	.	.	.	.	.	.
.	.	.	.	16aJJ)	.	16ccJJ)	.	.	.	.	.	.	.	.
=8	=8	=8	=8	=8	=8	=8	=8	=8	=8	=8	=8	=8	=8	=8
8BBL	.	8f#XL	.	(<16bLL	.	(>16ddLL	.	1ryy	1ryy	1ryy	.	.	1ryy	1ryy
.	.	.	.	16a)	.	16cc)	.	.	.	.	.	.	.	.
8BBJ	.	8f#	.	(<16b	.	(>16dd	.	.	.	.	.	.	.	.
.	.	.	.	16aJJ)	.	16ccJJ)	.	.	.	.	.	.	.	.
8EL	X n	8e	.	8gL	.	8b/L	.	.	.	.	.	.	.	.
8EJ	.	8eJ	.	8gJ	.	8b/J	.	.	.	.	.	.	.	.
4AA	X n	4e	.	(<16aLL	.	(>16ccLL	.	.	.	.	.	.	.	.
.	.	.	.	16g)	.	16b)	.	.	.	.	.	.	.	.
.	.	.	.	(<16a	.	(>16cc	.	.	.	.	.	.	.	.
.	.	.	.	16gJJ)	.	16bJJ)	.	.	.	.	.	.	.	.
!	!	!	!	!	!	!LO:SIC:custos cc:v	!	!	!	!	!	!	!	!
!	!	!	!	!	!	!LO:LB:g=original	!	!	!	!	!	!	!	!
8r	.	8r	.	(<16aLL	.	(>16ccLL	.	.	.	.	.	.	.	.
.	.	.	.	16g)	.	16b)	.	.	.	.	.	.	.	.
8AA	.	8e	.	(<16a	.	(>16cc	.	.	.	.	.	.	.	.
.	.	.	.	16gJJ)	.	16bJJ)	.	.	.	.	.	.	.	.
!	!	!	!	!LO:LB:g=original	!	!	!	!	!	!	!	!	!	!
=9	=9	=9	=9	=9	=9	=9	=9	=9	=9	=9	=9	=9	=9	=9
!	!	!	!	!	!	!	!	!	!	!	!LO:N:vis=00	!	!	!
8AAL	X n	8eL	.	(<16aLL	.	(>16ccLL	.	1ryy	1ryy	1ryy	0r	.	1ryy	1ryy
.	.	.	.	16g)	.	16b)	.	.	.	.	.	.	.	.
8AAJ	.	8e	.	(<16a	.	(>16cc	.	.	.	.	.	.	.	.
.	.	.	.	16gJJ)	.	16bJJ)	.	.	.	.	.	.	.	.
8DL	X #	8d	.	8f#XL	.	8aL	.	.	.	.	.	.	.	.
8F#XJ	X 6	8dJ	.	8aJ	.	8ddJ	.	.	.	.	.	.	.	.
8GL	.	4d	.	8gL	.	8bL	.	.	.	.	.	.	.	.
8DJ	X #	.	.	8f#X	.	8aJ	.	.	.	.	.	.	.	.
8GGL	.	8r	.	8g	.	16gLL	.	.	.	.	.	.	.	.
.	.	.	.	.	.	16b	.	.	.	.	.	.	.	.
8CJ	X 6	8e	.	8aJ	.	16a	.	.	.	.	.	.	.	.
.	X 5	.	.	.	.	16gJJ	.	.	.	.	.	.	.	.
=10	=10	=10	=10	=10	=10	=10	=10	=10	=10	=10	=10	=10	=10	=10
8DL	X #	4A	.	8.aL	.	8.f#XL	.	1ryy	1ryy	1ryy	.	.	1ryy	1ryy
8E	.	.	.	.	.	.	.	.	.	.	.	.	.	.
.	.	.	.	16gJk	.	16gJk	.	.	.	.	.	.	.	.
!	!	!	!	!	!	!LO:TX:t=P:problem:mixed beam	!	!	!	!	!	!	!	!
8F#X	.	8AL	.	8f#XL	.	8a/L	.	.	.	.	.	.	.	.
8DJ	.	8dJ	.	16bL	.	16gg\L	.	.	.	.	.	.	.	.
.	.	.	.	16aJJ	.	16ff#X\JJ	.	.	.	.	.	.	.	.
!	!	!LO:SIC:custos e:v	!	!	!	!	!	!	!	!	!	!	!	!
!	!	!LO:LB:g=original	!	!	!	!	!	!	!	!	!	!	!	!
8CL	.	8eL	.	16cc\LL	.	16eeLL	.	.	.	.	.	.	.	.
.	.	.	.	16b\	.	16dd	.	.	.	.	.	.	.	.
8E	.	8gJ	.	16a\	.	16cc	.	.	.	.	.	.	.	.
.	.	.	.	16g\JJ	.	16bJJ	.	.	.	.	.	.	.	.
8D	6 4	8dL	.	8gL	.	8bL	.	.	.	.	.	.	.	.
8DDJ	5 #	8dJ	.	8f#XJ	.	16aL	.	.	.	.	.	.	.	.
.	.	.	.	.	.	16gJJ	.	.	.	.	.	.	.	.
!LO:LB:g=original	!	!	!	!	!	!	!	!	!	!	!	!	!	!
=11	=11	=11	=11	=11	=11	=11	=11	=11	=11	=11	=11	=11	=11	=11
!	!	!	!	!	!	!	!	!	!	!	!LO:TX:a:i:t=ſolo.	!	!	!
4GG	.	4d	.	4g	.	8gL	.	1ryy	1ryy	1ryy	8r	.	1ryy	1ryy
!	!	!	!	!	!	!	!LO:DY:a:t=Piano	!	!	!	!	!	!	!
.	.	.	.	.	.	16gL	p	.	.	.	(>16gLL	Co-	.	.
.	.	.	.	.	.	16aJJ	.	.	.	.	16aJJ)	.	.	.
!	!	!	!	!	!LO:DY:b:t=piano	!	!	!	!	!	!	!	!	!
4r	.	4r	.	8r	p	16bLL	.	.	.	.	16bLL	.	.	.
.	.	.	.	.	.	16cc	.	.	.	.	16cc	.	.	.
.	.	.	.	16gLL	.	16b	.	.	.	.	16b	.	.	.
.	.	.	.	16aJJ	.	16ccJJ	.	.	.	.	16ccJJ	.	.	.
!	!	!	!LO:DY:a:t=Piano	!	!	!	!	!	!	!	!	!	!	!
2r	.	8gL	p	8b/L	.	8ddL	.	.	.	.	8dd	-lum-	.	.
.	.	8g	.	8b/J	.	8ddJ	.	.	.	.	8dd	-ba	.	.
.	.	8g	.	8b/L	.	8ddL	.	.	.	.	8dd	Chri-	.	.
.	.	8dJ	.	16cc/L	.	16eeL	.	.	.	.	(>16eeLL	-ſti	.	.
.	.	.	.	16a/JJ	.	16ff#XJJ	.	.	.	.	16ff#XJJ)	.	.	.
=12-	=12-	=12	=12	=12	=12	=12	=12	=12	=12	=12	=12	=12	=12	=12
!	!	!LO:TX:t=P:problem:mixed beam	!	!	!	!	!	!	!	!	!	!	!	!
1r	.	8G/L	.	8bL	.	8ggL	.	1ryy	1ryy	1ryy	8gg	u-	1ryy	1ryy
.	.	8d\J	.	16ddL	.	16ff#XL	.	.	.	.	(>16ff#XLL	-ni-	.	.
.	.	.	.	16ccJJ	.	16eeJJ	.	.	.	.	16eeJJ)	.	.	.
!	!	!LO:TX:t=P:problem:mixed beam	!	!	!	!	!	!	!	!	!	!	!	!
.	.	8g\L	.	8bL	.	8ddL	.	.	.	.	8dd,	-ca,	.	.
.	.	8G/J	.	8gJ	.	16ggL	.	.	.	.	(>16ggLL	pro-	.	.
.	.	.	.	.	.	16bJJ	.	.	.	.	16bJJ)	.	.	.
!	!	!	!	!	!	!	!	!	!	!	!LO:SIC:custos cc:v	!	!	!
!	!	!	!	!	!	!	!	!	!	!	!LO:LB:g=original	!	!	!
.	.	8dL	.	8aL	.	8ccL	.	.	.	.	8cc	-di-	.	.
.	.	8d	.	16f#XL	.	16aL	.	.	.	.	(>16aLL	-gi-	.	.
.	.	.	.	16gJJ	.	16bJJ	.	.	.	.	16bJJ)	.	.	.
!	!	!	!	!	!	!LO:SIC:custos cc:v	!	!	!	!	!	!	!	!
!	!	!	!	!	!	!LO:LB:g=original	!	!	!	!	!	!	!	!
.	.	8d	.	8aL	.	8ccL	.	.	.	.	8cc	-is	.	.
.	.	8dJ	.	8aJ	.	16aaL	.	.	.	.	(>16aaLL	mi-	.	.
.	.	.	.	.	.	16ccJJ	.	.	.	.	16ccJJ)	.	.	.
=13-	=13-	=13	=13	=13	=13	=13	=13	=13	=13	=13	=13	=13	=13	=13
4r	.	8dL	.	8aL	.	8ccL	.	1ryy	1ryy	1ryy	8cc	-ri-	1ryy	1ryy
.	.	8dJ	.	16gL	.	16bL	.	.	.	.	(>16bLL	-fi-	.	.
.	.	.	.	16f#XJJ	.	16aJJ	.	.	.	.	16aJJ)	.	.	.
!	!	!LO:TX:t=P:problem:mixed beam	!LO:DY:a:t=Fortè	!	!	!	!	!	!	!	!	!	!	!
8r	.	8G/L	f	8g/L	f	16bLL	.	.	.	.	8b	-ca	.	.
!	!	!	!	!	!	!	!LO:DY:a:t=Forte	!	!	!	!	!	!	!
.	.	.	.	.	.	16dd	f	.	.	.	.	.	.	.
8D/	X #	8d\J	.	16gg\L	.	16ee	.	.	.	.	8r	.	.	.
.	.	.	.	16ff#X\JJ	.	16ff#XJJ	.	.	.	.	.	.	.	.
!	!	!	!	!LO:SIC:custos ee:v	!	!	!	!	!	!	!	!	!	!
!	!	!	!	!LO:LB:g=original	!	!	!	!	!	!	!	!	!	!
8AL	7: #:	8c#XL	.	(>16eeLL	.	(>16ggLL	.	.	.	.	2r	.	.	.
.	.	.	.	16dd)	.	16ff#X)	.	.	.	.	.	.	.	.
8A	.	8c#	.	(>16ee	.	(>16gg	.	.	.	.	.	.	.	.
.	.	.	.	16ddJJ)	.	16ff#JJ)	.	.	.	.	.	.	.	.
8A	.	8c#	.	(>16eeLL	.	(>16ggLL	.	.	.	.	.	.	.	.
.	.	.	.	16dd)	.	16ff#X)	.	.	.	.	.	.	.	.
8AJ	.	8c#J	.	(>16ee	.	(>16gg	.	.	.	.	.	.	.	.
.	.	.	.	16ddJJ)	.	16ff#JJ)	.	.	.	.	.	.	.	.
=14	=14	=14	=14	=14	=14	=14	=14	=14	=14	=14	=14-	=14	=14	=14
8AL	7 #	8c#XL	.	8eeL	.	8ggL	.	1ryy	1ryy	1ryy	1r	.	1ryy	1ryy
8AJ	.	8c#J	.	16ddL	.	16ff#XL	.	.	.	.	.	.	.	.
.	.	.	.	16cc#XJJ	.	16eeJJ	.	.	.	.	.	.	.	.
8DL	X #	8AL	.	16ddLL	.	16ff#XLL	.	.	.	.	.	.	.	.
.	.	.	.	16ee	.	16gg	.	.	.	.	.	.	.	.
8GJ	.	8BJ	.	16ccn	.	16ee	.	.	.	.	.	.	.	.
.	.	.	.	16bJJ	.	16ddJJ	.	.	.	.	.	.	.	.
!	!	!LO:TX:t=P:problem:mixed beam	!	!	!	!	!	!	!	!	!	!	!	!
8C/L	.	8G/L	.	16ccLL	.	16eeLL	.	.	.	.	.	.	.	.
.	.	.	.	16b	.	16dd	.	.	.	.	.	.	.	.
8E/J	.	8g\J	.	16a	.	16cc	.	.	.	.	.	.	.	.
.	.	.	.	16gJJ	.	16bJJ	.	.	.	.	.	.	.	.
8DL	X 4	8dL	.	8gL	.	8bL	.	.	.	.	.	.	.	.
8DDJ	X #	8dJ	.	8f#XJ	.	16aL	.	.	.	.	.	.	.	.
.	.	.	.	.	.	16gJJ	.	.	.	.	.	.	.	.
=15	=15	=15	=15	=15	=15	=15	=15	=15	=15	=15	=15-	=15	=15	=15
4GG	.	4d	.	4g	.	8gL	.	1ryy	1ryy	1ryy	8r	.	1ryy	1ryy
.	.	.	.	.	.	16gL	.	.	.	.	16gLL	co-	.	.
.	.	.	.	.	.	16aJJ	.	.	.	.	16aJJ	.	.	.
!	!	!	!	!	!	!	!LO:DY:a:t=piano	!	!	!	!	!	!	!
4r	.	4r	.	8r	.	16bLL	p	.	.	.	16bLL	.	.	.
.	.	.	.	.	.	16cc	.	.	.	.	16cc	.	.	.
!	!	!	!	!	!LO:DY:b:t=piano	!	!	!	!	!	!	!	!	!
.	.	.	.	16gLL	p	16b	.	.	.	.	16b	.	.	.
.	.	.	.	16aJJ	.	16ccJJ	.	.	.	.	16ccJJ	.	.	.
!	!	!	!LO:DY:a:t=Piano	!	!	!	!	!	!	!	!	!	!	!
2r	.	8gL	p	8b/L	.	8ddL	.	.	.	.	8dd	-lum-	.	.
.	.	8g	.	8b/J	.	8ddJ	.	.	.	.	8dd	-ba	.	.
.	.	8g	.	8b/L	.	8ddL	.	.	.	.	8dd	Chri-	.	.
.	.	8dJ	.	16cc/L	.	16eeL	.	.	.	.	(>16eeLL	-ſti	.	.
.	.	.	.	16a/JJ	.	16ff#XJJ	.	.	.	.	16ff#XJJ)	.	.	.
=16-	=16-	=16	=16	=16	=16	=16	=16	=16	=16	=16	=16	=16	=16	=16
!	!	!LO:TX:t=P:problem:mixed beam	!	!	!	!	!	!	!	!	!	!	!	!
!LO:N:vis=00	!	!	!	!	!	!	!	!	!	!	!	!	!	!
00r	.	8G/L	.	8bL	.	8ggL	.	1ryy	1ryy	1ryy	8gg	u-	1ryy	1ryy
.	.	8d\J	.	16ddL	.	16ff#XL	.	.	.	.	(>16ff#XLL	-ni-	.	.
.	.	.	.	16ccJJ	.	16eeJJ	.	.	.	.	16eeJJ)	.	.	.
!	!	!LO:TX:t=P:problem:mixed beam	!	!	!	!	!	!	!	!	!	!	!	!
.	.	8g\L	.	8bL	.	8ddL	.	.	.	.	8dd	-ca	.	.
.	.	8G/J	.	8gJ	.	16ggL	.	.	.	.	(>16ggLL	pro-	.	.
.	.	.	.	.	.	16bJJ	.	.	.	.	16bJJ)	.	.	.
!	!	!LO:SIC:custos d:v	!	!	!	!LO:SIC:custos cc:v	!	!	!	!	!	!	!	!
!	!	!LO:LB:g=original	!	!	!	!LO:LB:g=original	!	!	!	!	!	!	!	!
.	.	8dL	.	8aL	.	8ccL	.	.	.	.	8cc	-di-	.	.
.	.	8d	.	16f#XL	.	16aL	.	.	.	.	(>16aLL	-gi-	.	.
.	.	.	.	16gJJ	.	16bJJ	.	.	.	.	16bJJ)	.	.	.
.	.	8d	.	8aL	.	8ccL	.	.	.	.	8cc	-is	.	.
!	!	!	!	!	!	!	!	!	!	!	!LO:LB:g=original	!	!	!
.	.	8dJ	.	8aJ	.	16aaL	.	.	.	.	(>16aaLL	mi-	.	.
.	.	.	.	.	.	16ccJJ	.	.	.	.	16ccJJ)	.	.	.
=17	=17	=17	=17	=17	=17	=17	=17	=17	=17	=17	=17	=17	=17	=17
.	.	8dL	.	8aL	.	8ccL	.	1ryy	1ryy	1ryy	8cc	-ri-	1ryy	1ryy
.	.	8dJ	.	16gL	.	16bL	.	.	.	.	(>16bLL	-fi-	.	.
.	.	.	.	16f#XJJ	.	16aJJ	.	.	.	.	16aJJ)	.	.	.
!	!	!LO:TX:t=P:problem:mixed beam	!	!	!	!	!	!	!	!	!	!	!	!
.	.	8G/L	.	8gL	.	8bL	.	.	.	.	8b,	-ca.	.	.
.	.	8d\J	.	8f#XJ	.	8ddJ	.	.	.	.	8dd	Be-	.	.
.	.	8AL	.	8eL	.	(>16eeLL	.	.	.	.	(>16eeLL	-ne-	.	.
.	.	.	.	.	.	16cc#XJ)	.	.	.	.	16cc#XJJ)	.	.	.
.	.	8d	.	8f#X	.	8ddJ	.	.	.	.	8dd	-dic-	.	.
.	.	8A	.	8e	.	(>16eeLL	.	.	.	.	(>16eeLL	-tum	.	.
.	.	.	.	.	.	16cc#XJ)	.	.	.	.	16cc#XJJ)	.	.	.
.	.	8dJ	.	8f#J	.	8ddJ	.	.	.	.	8dd	in	.	.
!	!	!	!	!LO:LB:g=original	!	!	!	!	!	!	!	!	!	!
=18	=18	=18	=18	=18	=18	=18	=18	=18	=18	=18	=18	=18	=18	=18
.	.	4A	.	8eeL	.	8ggL	.	1ryy	1ryy	1ryy	8gg	ae-	1ryy	1ryy
.	.	.	.	16ddL	.	16ff#XL	.	.	.	.	(>16ff#XLL	-di-	.	.
.	.	.	.	16cc#XJJ	.	16eeJJ	.	.	.	.	16eeJJ)	.	.	.
.	.	8dL	.	8ddL	.	8ff#XL	.	.	.	.	8ff#X,	-bus,	.	.
.	.	8dJ	.	8ddJ	.	8ff#J	.	.	.	.	8ff#	fra-	.	.
.	.	8aL	.	(>16eeLL	.	(>16ggLL	.	.	.	.	(>16ggLL	-trem	.	.
.	.	.	.	16cc#XJ)	.	16eeJ)	.	.	.	.	16eeJJ)	.	.	.
.	.	8dJ	.	8ddJ	.	8ff#XJ	.	.	.	.	8ff#X	co-	.	.
.	.	8AL	.	(>16eeLL	.	(>16ggLL	.	.	.	.	(>16ggLL	-er-	.	.
.	.	.	.	16cc#XJ)	.	16eeJ)	.	.	.	.	16eeJJ)	.	.	.
.	.	8dJ	.	8ddJ	.	8ff#XJ	.	.	.	.	8ff#X	-ces	.	.
=19	=19	=19	=19	=19	=19	=19	=19	=19	=19	=19	=19	=19	=19	=19
.	.	4A	.	8eeL	.	8ggL	.	1ryy	1ryy	1ryy	8gg	im-	1ryy	1ryy
.	.	.	.	16ddL	.	16ff#XL	.	.	.	.	(>16ff#XLL	-bri-	.	.
.	.	.	.	16cc#XJJ	.	16eeJJ	.	.	.	.	16eeJJ)	.	.	.
.	.	8dL	.	8ddL	.	8ff#XL	.	.	.	.	8ff#X	-bus	.	.
.	.	8gJ	.	8bJ	.	16eeL	.	.	.	.	(>16eeLL	co-	.	.
.	.	.	.	.	.	16ddJJ	.	.	.	.	16ddJJ)	.	.	.
!	!	!LO:TX:t=P:problem:mixed beam	!	!	!	!	!	!	!	!	!	!	!	!
!	!	!	!	!	!	!	!	!	!	!	!LO:LB:g=original	!	!	!
.	.	8a\L	.	8eL	.	8cc#XL	.	.	.	.	8cc#X	-er-	.	.
.	.	8g\	.	16f#XL	.	16ddL	.	.	.	.	(>16ddLL	-ces	.	.
.	.	.	.	16gJJ	.	16eeJJ	.	.	.	.	16eeJJ)	.	.	.
.	.	8a\	.	8eL	.	8aL	.	.	.	.	8a	im-	.	.
.	.	8A/J	.	8aJ	.	8cc#XJ	.	.	.	.	8cc#X	-bri-	.	.
=20	=20	=20	=20	=20	=20	=20	=20	=20	=20	=20	=20	=20	=20	=20
!LO:N:vis=00	!	!	!	!	!	!	!	!	!	!	!	!	!	!
00r	.	8dL	.	8f#XL	.	4dd	.	1ryy	1ryy	1ryy	4dd	-bus	1ryy	1ryy
.	.	16dL	.	8f#	.	.	.	.	.	.	.	.	.	.
.	.	16cJJ	.	.	.	.	.	.	.	.	.	.	.	.
.	.	8BL	.	8g	.	8r	.	.	.	.	8r	.	.	.
.	.	8GJ	.	8bJ	.	8dd	.	.	.	.	8dd	co-	.	.
.	.	4c/	.	(>16ccLL	.	(>16eeLL	.	.	.	.	(>16eeLL	-lum-	.	.
.	.	.	.	16b)	.	16dd)	.	.	.	.	16ddJJ)	.	.	.
.	.	.	.	(>16cc	.	(>16ee	.	.	.	.	(>16eeLL	-ba	.	.
.	.	.	.	16bJJ)	.	16ddJJ)	.	.	.	.	16ddJJ)	.	.	.
!	!	!	!	!	!	!LO:SIC:custos ee:v	!	!	!	!	!	!	!	!
!	!	!	!	!	!	!LO:LB:g=original	!	!	!	!	!	!	!	!
.	.	8r	.	(>16ccLL	.	(>16eeLL	.	.	.	.	(>16eeLL	Chri-	.	.
.	.	.	.	16b)	.	16dd)	.	.	.	.	16ddJJ)	.	.	.
.	.	8c/	.	(>16cc	.	(>16ee	.	.	.	.	(>16eeLL	-ſti	.	.
.	.	.	.	16bJJ)	.	16ddJJ)	.	.	.	.	16ddJJ)	.	.	.
=21	=21	=21	=21	=21	=21	=21	=21	=21	=21	=21	=21	=21	=21	=21
.	.	8c/L	.	(>16ccLL	.	(>16eeLL	.	1ryy	1ryy	1ryy	(>16eeLL	u-	1ryy	1ryy
.	.	.	.	16b)	.	16dd)	.	.	.	.	16ddJJ)	.	.	.
.	.	8c/J	.	(>16cc	.	(>16ee	.	.	.	.	(16eeLL	-ni-	.	.
.	.	.	.	16bJJ)	.	16ddJJ)	.	.	.	.	16ddJJ)	.	.	.
.	.	8f#XL	.	8aL	.	8ccL	.	.	.	.	8cc,	-ca,	.	.
.	.	8f#J	.	8aJ	.	8ccJ	.	.	.	.	8cc	pro-	.	.
.	.	4B	.	(<16bLL	.	(>16ddLL	.	.	.	.	(>16ddLL	-di-	.	.
.	.	.	.	16a)	.	16cc)	.	.	.	.	16ccJJ)	.	.	.
.	.	.	.	(<16b	.	(>16dd	.	.	.	.	(>16ddLL	-gi-	.	.
.	.	.	.	16aJJ)	.	16ccJJ)	.	.	.	.	16ccJJ)	.	.	.
.	.	8r	.	(<16bLL	.	(>16ddLL	.	.	.	.	(>16ddLL	-is	.	.
.	.	.	.	16a)	.	16cc)	.	.	.	.	16ccJJ)	.	.	.
.	.	8B	.	(<16b	.	(>16dd	.	.	.	.	(>16ddLL	mi-	.	.
.	.	.	.	16aJJ)	.	16ccJJ)	.	.	.	.	16ccJJ)	.	.	.
!	!	!	!	!LO:LB:g=original	!	!	!	!	!	!	!LO:LB:g=original	!	!	!
=22	=22	=22	=22	=22	=22	=22	=22	=22	=22	=22	=22	=22	=22	=22
.	.	8BL	.	(<16bLL	.	(>16ddLL	.	1ryy	1ryy	1ryy	(>16ddLL	-ri-	1ryy	1ryy
.	.	.	.	16a)	.	16cc)	.	.	.	.	16ccJJ)	.	.	.
.	.	8BJ	.	(<16b	.	(>16dd	.	.	.	.	(>16ddLL	-fi-	.	.
.	.	.	.	16aJJ)	.	16ccJJ)	.	.	.	.	16ccJJ)	.	.	.
.	.	8eL	.	8gL	.	8b/L	.	.	.	.	8b,	-ca.	.	.
.	.	8eJ	.	8gJ	.	8b/J	.	.	.	.	8b	Be-	.	.
!	!	!LO:SIC:custos A:v	!	!	!	!	!	!	!	!	!	!	!	!
!	!	!LO:LB:g=original	!	!	!	!	!	!	!	!	!	!	!	!
.	.	4A	.	(<16aLL	.	(>16ccLL	.	.	.	.	(>16ccLL	-ne-	.	.
.	.	.	.	16g)	.	16b)	.	.	.	.	16bJJ)	.	.	.
.	.	.	.	(<16a	.	(>16cc	.	.	.	.	(>16ccLL	-dic-	.	.
.	.	.	.	16gJJ)	.	16bJJ)	.	.	.	.	16bJJ)	.	.	.
.	.	8r	.	(<16aLL	.	(>16ccLL	.	.	.	.	(>16ccLL	-tum	.	.
.	.	.	.	16g)	.	16b)	.	.	.	.	16bJJ)	.	.	.
.	.	8A	.	(<16a	.	(>16cc	.	.	.	.	(>16ccLL	in	.	.
.	.	.	.	16gJJ)	.	16bJJ)	.	.	.	.	16bJJ)	.	.	.
=23	=23	=23	=23	=23	=23	=23	=23	=23	=23	=23	=23	=23	=23	=23
.	.	8AL	.	16aLL	.	(>16ccLL	.	1ryy	1ryy	1ryy	(>16ccLL	ae-	1ryy	1ryy
.	.	.	.	16g	.	16b)	.	.	.	.	16bJJ)	.	.	.
.	.	8AJ	.	16a	.	(>16cc	.	.	.	.	(>16ccLL	-di-	.	.
.	.	.	.	16gJJ	.	16bJJ)	.	.	.	.	16bJJ)	.	.	.
.	.	8dL	.	8f#XL	.	8aL	.	.	.	.	8a,	-bus,	.	.
.	.	8f#XJ	.	8aJ	.	8ddJ	.	.	.	.	8dd	fra-	.	.
.	.	8gL	.	8gL	.	8bL	.	.	.	.	8b	-trem	.	.
.	.	8dJ	.	8f#X	.	8aJ	.	.	.	.	8a	co-	.	.
.	.	8GL	.	8g	.	16gLL	.	.	.	.	(>16gLL	-er-	.	.
.	.	.	.	.	.	16b	.	.	.	.	16bJJ)	.	.	.
.	.	8cJ	.	8aJ	.	16a	.	.	.	.	(>16aLL	-ces	.	.
.	.	.	.	.	.	16gJJ	.	.	.	.	16gJJ)	.	.	.
=24-	=24-	=24	=24	=24	=24	=24	=24	=24	=24	=24	=24	=24	=24	=24
1r	.	8dL	.	8aL	.	8.f#XL	.	1ryy	1ryy	1ryy	8.f#X	im-	1ryy	1ryy
.	.	8e	.	16aL	.	.	.	.	.	.	.	.	.	.
.	.	.	.	16gJJ	.	16gJk	.	.	.	.	16g/	-bri-	.	.
!	!	!	!	!	!	!LO:TX:t=P:problem:mixed beam	!	!	!	!	!	!	!	!
.	.	8f#X	.	8f#XL	.	8a/L	.	.	.	.	8a,	-bus,	.	.
.	.	8dJ	.	16bL	.	16gg\L	.	.	.	.	(>16ggLL	co-	.	.
.	.	.	.	16aJJ	.	16ff#X\JJ	.	.	.	.	16ff#XJJ)	.	.	.
!	!	!	!	!	!	!	!	!	!	!	!LO:LB:g=original	!	!	!
!	!	!	!	!	!	!LO:SIC:custos ee:v	!	!	!	!	!	!	!	!
!	!	!	!	!	!	!LO:LB:g=original	!	!	!	!	!	!	!	!
.	.	8cL	.	16ccLL	.	16eeLL	.	.	.	.	(>16eeLL	-er-	.	.
.	.	.	.	16b	.	16dd	.	.	.	.	16ddJJ)	.	.	.
.	.	8eJ	.	16a	.	16cc	.	.	.	.	(>16ccLL	-ces	.	.
.	.	.	.	16gJJ	.	16bJJ	.	.	.	.	16bJJ)	.	.	.
!	!	!LO:TX:t=P:problem:mixed beam	!	!	!	!	!	!	!	!	!	!	!	!
.	.	8d\L	.	8gL	.	8bL	.	.	.	.	8b	im-	.	.
.	.	8D/J	.	8f#XJ	.	16aL	.	.	.	.	(>16aLL	-bri-	.	.
.	.	.	.	.	.	16gJJ	.	.	.	.	16gJJ)	.	.	.
=25-	=25-	=25	=25	=25	=25	=25	=25	=25	=25	=25	=25	=25	=25	=25
8r	.	4G	.	4g	.	4g	.	1ryy	1ryy	1ryy	4g/	-bus,	1ryy	1ryy
!LO:TX:t=P:problem:mixed beam	!	!	!	!	!	!	!	!	!	!	!	!	!	!
8G\L	.	.	.	.	.	.	.	.	.	.	.	.	.	.
8GG/	.	8r	.	8r	.	8r	.	.	.	.	8r	.	.	.
8G\J	.	8g	.	8b/	.	8dd	.	.	.	.	8dd	co-	.	.
2r	.	4c/	.	(>16ccLL	.	(>16eeLL	.	.	.	.	(>16eeLL	-lum-	.	.
.	.	.	.	16b)	.	16dd)	.	.	.	.	16ddJJ)	.	.	.
.	.	.	.	(>16cc	.	(>16ee	.	.	.	.	(>16eeLL	-ba	.	.
.	.	.	.	16bJJ)	.	16ddJJ)	.	.	.	.	16ddJJ)	.	.	.
.	.	8r	.	(>16ccLL	.	(>16eeLL	.	.	.	.	(>16eeLL	Chri-	.	.
.	.	.	.	16b)	.	16dd)	.	.	.	.	16ddJJ)	.	.	.
.	.	8c/	.	(>16cc	.	(>16ee	.	.	.	.	(>16eeLL	-ſti	.	.
.	.	.	.	16bJJ)	.	16ddJJ)	.	.	.	.	16ddJJ)	.	.	.
=26	=26	=26	=26	=26	=26	=26	=26	=26	=26	=26	=26	=26	=26	=26
!LO:N:vis=00	!	!	!	!	!	!	!	!	!	!	!	!	!	!
00r	.	8cL	.	(>16ccLL	.	(>16eeLL	.	1ryy	1ryy	1ryy	(>16eeLL	u-	1ryy	1ryy
.	.	.	.	16b)	.	16dd)	.	.	.	.	16ddJJ)	.	.	.
.	.	8cJ	.	(>16cc	.	(>16ee	.	.	.	.	(>16eeLL	-ni-	.	.
.	.	.	.	16bJJ)	.	16ddJJ)	.	.	.	.	16ddJJ)	.	.	.
!	!	!	!	!LO:SIC:custos a:v	!	!	!	!	!	!	!	!	!	!
!	!	!	!	!LO:LB:g=original	!	!	!	!	!	!	!	!	!	!
.	.	8f#XL	.	8aL	.	8ccL	.	.	.	.	8cc,	-ca,	.	.
.	.	8f#J	.	8aJ	.	8ccJ	.	.	.	.	8cc	pro-	.	.
.	.	4B	.	(<16bLL	.	(>16ddLL	.	.	.	.	(>16ddLL	-di-	.	.
.	.	.	.	16a)	.	16cc)	.	.	.	.	16ccJJ)	.	.	.
.	.	.	.	(<16b	.	(>16dd	.	.	.	.	(>16ddLL	-gi-	.	.
.	.	.	.	16aJJ)	.	16ccJJ)	.	.	.	.	16ccJJ)	.	.	.
.	.	8r	.	(<16bLL	.	(>16ddLL	.	.	.	.	(>16ddLL	-is	.	.
.	.	.	.	16a)	.	16cc)	.	.	.	.	16ccJJ)	.	.	.
.	.	8B	.	(<16b	.	(>16dd	.	.	.	.	(>16ddLL	mi-	.	.
.	.	.	.	16aJJ)	.	16ccJJ)	.	.	.	.	16ccJJ)	.	.	.
=27	=27	=27	=27	=27	=27	=27	=27	=27	=27	=27	=27	=27	=27	=27
.	.	8BL	.	(<16bLL	.	(>16ddLL	.	1ryy	1ryy	1ryy	(>16ddLL	-ri-	1ryy	1ryy
.	.	.	.	16a)	.	16cc)	.	.	.	.	16ccJJ)	.	.	.
.	.	8BJ	.	(<16b	.	(>16dd	.	.	.	.	(>16ddLL	-fi-	.	.
.	.	.	.	16aJJ)	.	16ccJJ)	.	.	.	.	16ccJJ)	.	.	.
.	.	8eL	.	8gL	.	8b/L	.	.	.	.	8b,	-ca,	.	.
.	.	8eJ	.	8gJ	.	8b/J	.	.	.	.	8b	Be-	.	.
!	!	!	!	!	!	!	!	!	!	!	!LO:SIC:custos cc:v	!	!	!
!	!	!	!	!	!	!	!	!	!	!	!LO:LB:g=original	!	!	!
.	.	4A	.	(<16aLL	.	(>16ccLL	.	.	.	.	(>16ccLL	-ne-	.	.
.	.	.	.	16g)	.	16b)	.	.	.	.	16bJJ)	.	.	.
.	.	.	.	(<16a	.	(>16cc	.	.	.	.	(>16ccLL	-dic-	.	.
.	.	.	.	16gJJ)	.	16bJJ)	.	.	.	.	16bJJ)	.	.	.
.	.	8r	.	(<16aLL	.	(>16ccLL	.	.	.	.	(>16ccLL	-tum	.	.
.	.	.	.	16g)	.	16b)	.	.	.	.	16bJJ)	.	.	.
.	.	8A	.	(<16a	.	(>16cc	.	.	.	.	(>16ccLL	in	.	.
.	.	.	.	16gJJ)	.	16bJJ)	.	.	.	.	16bJJ)	.	.	.
=28	=28	=28	=28	=28	=28	=28	=28	=28	=28	=28	=28	=28	=28	=28
.	.	8AL	.	(<16aLL	.	(>16ccLL	.	1ryy	1ryy	1ryy	(>16ccLL	ae-	1ryy	1ryy
.	.	.	.	16g)	.	16b)	.	.	.	.	16bJJ)	.	.	.
.	.	8AJ	.	(<16a	.	(>16cc	.	.	.	.	(>16ccLL	-di-	.	.
.	.	.	.	16gJJ)	.	16bJJ)	.	.	.	.	16bJJ)	.	.	.
!	!	!LO:SIC:custos d:v	!	!	!	!	!	!	!	!	!	!	!	!
!	!	!LO:LB:g=original	!	!	!	!	!	!	!	!	!	!	!	!
.	.	8dL	.	8f#XL	.	8a/L	.	.	.	.	8a,	-bus,	.	.
.	.	8dJ	.	8aJ	.	8dd/J	.	.	.	.	8dd	fra-	.	.
!	!	!	!	!	!	!LO:SIC:custos b:v	!	!	!	!	!	!	!	!
!	!	!	!	!	!	!LO:LB:g=original	!	!	!	!	!	!	!	!
.	.	8gL	.	8gL	.	8bL	.	.	.	.	8b	-trem	.	.
.	.	8dJ	.	8f#X	.	8aJ	.	.	.	.	8a	co-	.	.
.	.	8GL	.	8g	.	16gLL	.	.	.	.	(>16gLL	-er-	.	.
.	.	.	.	.	.	16b	.	.	.	.	16bJJ)	.	.	.
.	.	8cJ	.	8aJ	.	16a	.	.	.	.	(>16aLL	-ces	.	.
.	.	.	.	.	.	16gJJ	.	.	.	.	16gJJ)	.	.	.
=29	=29	=29	=29	=29	=29	=29	=29	=29	=29	=29	=29	=29	=29	=29
.	.	8dL	.	8aL	.	8.f#XL	.	1ryy	1ryy	1ryy	8.f#X	im-	1ryy	1ryy
.	.	8e	.	16aL	.	.	.	.	.	.	.	.	.	.
.	.	.	.	16gJJ	.	16gJk	.	.	.	.	16g/	-bri-	.	.
!	!	!	!	!	!	!LO:TX:t=P:problem:mixed beam	!	!	!	!	!	!	!	!
.	.	8f#X	.	8f#XL	.	8a/L	.	.	.	.	8a,	-bus,	.	.
.	.	8dJ	.	16bL	.	16gg\L	.	.	.	.	(>16ggLL	co-	.	.
.	.	.	.	16aJJ	.	16ff#X\JJ	.	.	.	.	16ff#XJJ)	.	.	.
!	!	!LO:TX:t=P:problem:mixed beam	!	!	!	!	!	!	!	!	!	!	!	!
.	.	8c\L	.	16cc\LL	.	16eeLL	.	.	.	.	(>16eeLL	-er-	.	.
.	.	.	.	16b	.	16dd	.	.	.	.	16ddJJ)	.	.	.
.	.	8e\	.	16a\	.	16cc	.	.	.	.	(>16ccLL	-ces	.	.
.	.	.	.	16g\JJ	.	16bJJ	.	.	.	.	16bJJ)	.	.	.
.	.	8d\	.	8gL	.	8bL	.	.	.	.	8b	im-	.	.
.	.	8D/J	.	8f#XJ	.	(<16aL	.	.	.	.	(>16aLL	-bri-	.	.
.	.	.	.	.	.	16gJJ)	.	.	.	.	16gJJ)	.	.	.
=30	=30	=30	=30	=30	=30	=30	=30	=30	=30	=30	=30	=30	=30	=30
8r	.	4G	.	4g	.	4g	.	1ryy	1ryy	1ryy	4g/	-bus	1ryy	1ryy
!LO:TX:t=P:problem:mixed beam	!	!	!	!	!	!	!	!	!	!	!	!	!	!
8GL	.	.	.	.	.	.	.	.	.	.	.	.	.	.
!	!	!	!	!	!	!	!	!	!	!	!LO:SIC:custos dd:v	!	!	!
!	!	!	!	!	!	!	!	!	!	!	!LO:LB:g=original	!	!	!
8GG	.	8r	.	8r	.	8r	.	.	.	.	8r	.	.	.
8GJ	.	8d	.	8a	.	8dd	.	.	.	.	8dd	fra-	.	.
!	!	!LO:TX:t=P:problem:mixed beam	!	!	!	!	!	!	!	!	!	!	!	!
2r	.	8G/L	.	8gL	.	8bL	.	.	.	.	8b	-trem	.	.
.	.	8d\J	.	8f#XJ	.	8aJ	.	.	.	.	8a	co-	.	.
!	!	!	!	!LO:SIC:custos g:v	!	!	!	!	!	!	!	!	!	!
!	!	!	!	!LO:LB:g=original	!	!	!	!	!	!	!	!	!	!
.	.	8gL	.	8gL	.	16gLL	.	.	.	.	(>16gLL	-er-	.	.
.	.	.	.	.	.	16b	.	.	.	.	16bJJ)	.	.	.
.	.	8cJ	.	8aJ	.	16a	.	.	.	.	(>16aLL	-ces	.	.
.	.	.	.	.	.	16gJJ	.	.	.	.	16gJJ)	.	.	.
=31	=31	=31	=31	=31	=31	=31	=31	=31	=31	=31	=31	=31	=31	=31
1r	.	8dL	.	8aL	.	8.f#XL	.	1ryy	1ryy	1ryy	8.f#X	im-	1ryy	1ryy
.	.	8e	.	16aL	.	.	.	.	.	.	.	.	.	.
.	.	.	.	16gJJ	.	16gJk	.	.	.	.	16g/	-bri-	.	.
!	!	!	!	!	!	!LO:TX:t=P:problem:mixed beam	!	!	!	!	!	!	!	!
.	.	8f#X	.	8f#XL	.	8a/L	.	.	.	.	8a,	-bus,	.	.
.	.	8dJ	.	16bL	.	16gg\L	.	.	.	.	(>16ggLL	co-	.	.
.	.	.	.	16aJJ	.	16ff#X\JJ	.	.	.	.	16ff#XJJ)	.	.	.
.	.	8cL	.	16cc\LL	.	16eeLL	.	.	.	.	(>16eeLL	-er-	.	.
.	.	.	.	16b\	.	16dd	.	.	.	.	16ddJJ)	.	.	.
.	.	8eJ	.	16a\	.	16cc	.	.	.	.	(>16ccLL	-ces	.	.
.	.	.	.	16g\JJ	.	16bJJ	.	.	.	.	16bJJ)	.	.	.
!	!	!LO:TX:t=P:problem:mixed beam	!	!	!	!	!	!	!	!	!	!	!	!
.	.	8d\L	.	8gL	.	8bL	.	.	.	.	8b	im-	.	.
.	.	8D/J	.	8f#XJ	.	16aL	.	.	.	.	(16aLL	-bri-	.	.
.	.	.	.	.	.	16gJJ	.	.	.	.	16gJJ)	.	.	.
!LO:PB:g=original	!	!	!	!	!	!	!	!	!	!	!	!	!	!
=32	=32	=32	=32	=32	=32	=32	=32	=32	=32	=32	=32	=32	=32	=32
!	!	!	!LO:DY:a:t=Fortè	!	!	!	!	!	!	!	!	!	!	!
2r	.	4G	f	4g	.	8gL	.	1ryy	1ryy	1ryy	4g/	-bus	1ryy	1ryy
.	.	.	.	.	.	16gL	.	.	.	.	.	.	.	.
.	.	.	.	.	.	16aJJ	.	.	.	.	.	.	.	.
!	!	!	!	!	!	!	!LO:DY:a:t=fortè	!	!	!	!	!	!	!
.	.	4r	.	8r	.	16bLL	f	.	.	.	4r	.	.	.
.	.	.	.	.	.	16cc	.	.	.	.	.	.	.	.
!	!	!	!	!	!LO:DY:b:t=fortè	!	!	!	!	!	!	!	!	!
.	.	.	.	16gLL	f	16b	.	.	.	.	.	.	.	.
.	.	.	.	16aJJ	.	16ccJJ	.	.	.	.	.	.	.	.
!	!	!	!	!	!	!LO:SIC:custos dd:v	!	!	!	!	!	!	!	!
!	!	!	!	!	!	!LO:LB:g=original	!	!	!	!	!	!	!	!
8GL	.	8r	.	8bL	.	8ddL	.	.	.	.	2r	.	.	.
8G	.	8dL	.	8bJ	.	8ddJ	.	.	.	.	.	.	.	.
8G	.	8d	.	8bL	.	8ddL	.	.	.	.	.	.	.	.
8DJ	X #	8dJ	.	16ccL	.	16eeL	.	.	.	.	.	.	.	.
.	.	.	.	16aJJ	.	16ff#XJJ	.	.	.	.	.	.	.	.
=33	=33	=33	=33	=33	=33	=33	=33	=33	=33	=33	=33	=33	=33	=33
!	!	!	!	!	!	!	!	!	!	!	!LO:TX:a:i:t=Fine	!	!	!
!	!	!	!	!	!	!	!	!	!	!	!LO:N:vis=00	!	!	!
8GGL	.	4d	.	8bL	.	8ggL	.	1ryy	1ryy	1ryy	00r;<	.	1ryy	1ryy
8DJ	X #	.	.	16ddL	.	16ff#XL	.	.	.	.	.	.	.	.
.	.	.	.	16ccJJ	.	16eeJJ	.	.	.	.	.	.	.	.
!LO:TX:t=P:problem:mixed beam	!	!	!	!	!	!	!	!	!	!	!	!	!	!
8G\L	.	8r	.	8bL	.	8ddL	.	.	.	.	.	.	.	.
8GG/J	.	8d	.	8gJ	.	16ggL	.	.	.	.	.	.	.	.
.	.	.	.	.	.	16bJJ	.	.	.	.	.	.	.	.
8DL	7: #:	8f#XL	.	8aL	.	8ccL	.	.	.	.	.	.	.	.
8D	.	8f#	.	16f#XL	.	16aL	.	.	.	.	.	.	.	.
.	.	.	.	16gJJ	.	16bJJ	.	.	.	.	.	.	.	.
8D	.	8f#	.	8aL	.	8ccL	.	.	.	.	.	.	.	.
8DJ	.	8f#J	.	16ccL	.	16aaL	.	.	.	.	.	.	.	.
.	.	.	.	16aJJ	.	16ccJJ	.	.	.	.	.	.	.	.
=34	=34	=34	=34	=34	=34	=34	=34	=34	=34	=34	=34	=34	=34	=34
8DL	x #	8f#XL	.	8aL	.	8ccL	.	1ryy	1ryy	1ryy	.	.	1ryy	1ryy
8DJ	.	8f#	.	16gL	.	16bL	.	.	.	.	.	.	.	.
.	.	.	.	16f#XJJ	.	16aJJ	.	.	.	.	.	.	.	.
8GGL	.	8d	.	8gL	.	8bL	.	.	.	.	.	.	.	.
8DJ	X #	8f#XJ	.	8f#XJ	.	8ddJ	.	.	.	.	.	.	.	.
!	!	!LO:SIC:custos A:v	!	!	!	!	!	!	!	!	!	!	!	!
!	!	!LO:LB:g=original	!	!	!	!	!	!	!	!	!	!	!	!
8AL	X 3	8AL	.	8eL	.	(>16eeLL	.	.	.	.	.	.	.	.
.	.	.	.	.	.	16cc#XJ)	.	.	.	.	.	.	.	.
8D	X #	8A	.	8f#X	.	8ddJ	.	.	.	.	.	.	.	.
8A	X #	8A	.	8e	.	(>16eeLL	.	.	.	.	.	.	.	.
.	.	.	.	.	.	16cc#XJ)	.	.	.	.	.	.	.	.
8DJ	X #	8AJ	.	8f#XJ	.	8ddJ	.	.	.	.	.	.	.	.
!	!	!	!	!LO:LB:g=original	!	!	!	!	!	!	!	!	!	!
=35	=35	=35	=35	=35	=35	=35	=35	=35	=35	=35	=35	=35	=35	=35
!LO:TX:t=P:problem:mixed beam	!	!	!	!	!	!	!	!	!	!	!	!	!	!
8A\L	7 #	4A	.	8eeL	.	8ggL	.	1ryy	1ryy	1ryy	.	.	1ryy	1ryy
8AA/J	.	.	.	16ddL	.	16ff#XL	.	.	.	.	.	.	.	.
.	.	.	.	16cc#XJJ	.	16eeJJ	.	.	.	.	.	.	.	.
!LO:TX:t=P:problem:mixed beam	!	!	!	!	!	!	!	!	!	!	!	!	!	!
8D/L	X #	8r	.	8ddL	.	8ff#XL	.	.	.	.	.	.	.	.
8d\J	.	8a	.	8ddJ	.	8ff#J	.	.	.	.	.	.	.	.
8AL	7 #	8aL	.	(>16eeLL	.	(>16ggLL	.	.	.	.	.	.	.	.
.	.	.	.	16cc#XJ)	.	16eeJ)	.	.	.	.	.	.	.	.
8DJ	X #	8a	.	8ddJ	.	8ff#XJ	.	.	.	.	.	.	.	.
8AAL	7 #	8a	.	(>16eeLL	.	16ggLL	.	.	.	.	.	.	.	.
.	.	.	.	16cc#XJ)	.	16eeJ	.	.	.	.	.	.	.	.
8DJ	X #	8aJ	.	8ddJ	.	8ff#XJ	.	.	.	.	.	.	.	.
=36	=36	=36	=36	=36	=36	=36	=36	=36	=36	=36	=36	=36	=36	=36
4AA	7 #	8aL	.	8eeL	.	8ggL	.	1ryy	1ryy	1ryy	.	.	1ryy	1ryy
.	.	8a	.	16ddL	.	16ff#XL	.	.	.	.	.	.	.	.
.	.	.	.	16cc#XJJ	.	16ee/JJ	.	.	.	.	.	.	.	.
!	!	!	!	!	!	!LO:SIC:custos ff#:v	!	!	!	!	!	!	!	!
!	!	!	!	!	!	!LO:PB:g=original	!	!	!	!	!	!	!	!
8DL	X #	8a	.	8ddL	.	16ff#XLL	.	.	.	.	.	.	.	.
.	.	.	.	.	.	16gg	.	.	.	.	.	.	.	.
8GJ	X 6	8gJ	.	8bJ	.	16ee	.	.	.	.	.	.	.	.
.	X 5	.	.	.	.	16ddJJ	.	.	.	.	.	.	.	.
!	!	!LO:TX:t=P:problem:mixed beam	!	!	!	!	!	!	!	!	!	!	!	!
8AL	X #	8e\L	.	8eL	.	8cc#XL	.	.	.	.	.	.	.	.
8GJ	6 5	8A/	.	16f#XL	.	16ddL	.	.	.	.	.	.	.	.
.	.	.	.	16gJJ	.	16eeJJ	.	.	.	.	.	.	.	.
!LO:TX:t=P:problem:mixed beam	!	!	!	!	!	!	!	!	!	!	!	!	!	!
8A\L	5 4	8A/	.	8eL	.	8aL	.	.	.	.	.	.	.	.
8AA/J	X #	8A/J	.	8aJ	.	8cc#XJ	.	.	.	.	.	.	.	.
=37	=37	=37	=37	=37	=37	=37	=37	=37	=37	=37	=37	=37	=37	=37
!LO:TX:t=P:problem:mixed beam	!	!	!	!	!	!	!	!	!	!	!	!	!	!
!	!	!	!	!	!	!	!	!	!	!	!LO:N:vis=00	!	!	!
8D/L	X #	4A	.	8f#XL	.	4dd	.	1ryy	1ryy	1ryy	00r	.	1ryy	1ryy
8d\	.	.	.	8f#	.	.	.	.	.	.	.	.	.	.
8B\	X 6	8r	.	8g	.	8r	.	.	.	.	.	.	.	.
8G\J	.	8g	.	8bJ	.	8dd	.	.	.	.	.	.	.	.
!LO:LB:g=original	!	!	!	!	!	!	!	!	!	!	!	!	!	!
4C	.	4g	.	(>16ccLL	.	(>16eeLL	.	.	.	.	.	.	.	.
.	.	.	.	16b)	.	16dd)	.	.	.	.	.	.	.	.
.	.	.	.	(>16cc	.	(>16ee	.	.	.	.	.	.	.	.
.	.	.	.	16bJJ)	.	16ddJJ)	.	.	.	.	.	.	.	.
8r	.	8r	.	(>16ccLL	.	(>16eeLL	.	.	.	.	.	.	.	.
.	.	.	.	16b)	.	16dd)	.	.	.	.	.	.	.	.
8C	.	8g	.	(>16cc	.	(>16ee	.	.	.	.	.	.	.	.
.	.	.	.	16bJJ)	.	16ddJJ)	.	.	.	.	.	.	.	.
=38	=38	=38	=38	=38	=38	=38	=38	=38	=38	=38	=38	=38	=38	=38
8CL	.	8gL	.	(>16ccLL	.	(>16eeLL	.	1ryy	1ryy	1ryy	.	.	1ryy	1ryy
.	.	.	.	16b)	.	16dd)	.	.	.	.	.	.	.	.
8CJ	.	8g	.	(>16cc	.	(>16ee	.	.	.	.	.	.	.	.
.	.	.	.	16bJJ)	.	16ddJJ)	.	.	.	.	.	.	.	.
8F#XL	X 5-	8f#X	.	8aL	.	8ccL	.	.	.	.	.	.	.	.
8F#J	.	8f#J	.	8aJ	.	8ccJ	.	.	.	.	.	.	.	.
4BB	X n	4f#	.	(<16bLL	.	(>16ddLL	.	.	.	.	.	.	.	.
.	.	.	.	16a)	.	16cc)	.	.	.	.	.	.	.	.
.	.	.	.	(<16b	.	(>16dd	.	.	.	.	.	.	.	.
.	.	.	.	16aJJ)	.	16ccJJ)	.	.	.	.	.	.	.	.
8r	.	8r	.	(<16bLL	.	(>16ddLL	.	.	.	.	.	.	.	.
.	.	.	.	16a)	.	16cc)	.	.	.	.	.	.	.	.
8BB	.	8f#	.	(<16b	.	(>16dd	.	.	.	.	.	.	.	.
.	.	.	.	16aJJ)	.	16ccJJ)	.	.	.	.	.	.	.	.
!	!	!	!	!LO:PB:g=original	!	!	!	!	!	!	!	!	!	!
=39	=39	=39	=39	=39	=39	=39	=39	=39	=39	=39	=39	=39	=39	=39
8BBL	.	8f#XL	.	(<16bLL	.	(>16ddLL	.	1ryy	1ryy	1ryy	.	.	1ryy	1ryy
.	.	.	.	16a)	.	16cc)	.	.	.	.	.	.	.	.
8BBJ	.	8f#	.	16b	.	16dd	.	.	.	.	.	.	.	.
.	.	.	.	16aJJ	.	16ccJJ	.	.	.	.	.	.	.	.
8EL	X n	8e	.	8gL	.	8b/L	.	.	.	.	.	.	.	.
8EJ	.	8eJ	.	8gJ	.	8b/J	.	.	.	.	.	.	.	.
4AA	X n	4e	.	(<16aLL	.	(>16ccLL	.	.	.	.	.	.	.	.
.	.	.	.	16g)	.	16b)	.	.	.	.	.	.	.	.
.	.	.	.	(<16a	.	(>16cc	.	.	.	.	.	.	.	.
.	.	.	.	16gJJ)	.	16bJJ)	.	.	.	.	.	.	.	.
8r	.	8r	.	(<16aLL	.	(>16ccLL	.	.	.	.	.	.	.	.
.	.	.	.	16g)	.	16b)	.	.	.	.	.	.	.	.
8AA	.	8e	.	(<16a	.	(>16cc	.	.	.	.	.	.	.	.
.	.	.	.	16gJJ)	.	16bJJ)	.	.	.	.	.	.	.	.
=40	=40	=40	=40	=40	=40	=40	=40	=40	=40	=40	=40	=40	=40	=40
8AAL	X n	8eL	.	(<16aLL	.	(>16ccLL	.	1ryy	1ryy	1ryy	.	.	1ryy	1ryy
.	.	.	.	16g)	.	16b)	.	.	.	.	.	.	.	.
8AAJ	.	8e	.	(16a	.	16cc	.	.	.	.	.	.	.	.
.	.	.	.	16gJJ)	.	16bJJ	.	.	.	.	.	.	.	.
8DL	X #	8d	.	8f#XL	.	8a/L	.	.	.	.	.	.	.	.
8F#XJ	X 6	8dJ	.	8aJ	.	8dd/J	.	.	.	.	.	.	.	.
!	!	!	!	!	!	!LO:SIC:custos b:v	!	!	!	!	!	!	!	!
!	!	!	!	!	!	!LO:LB:g=original	!	!	!	!	!	!	!	!
8GL	.	4d	.	8gL	.	8bL	.	.	.	.	.	.	.	.
8DJ	X #	.	.	8f#X	.	8aJ	.	.	.	.	.	.	.	.
8GGL	.	8r	.	8g	.	16gLL	.	.	.	.	.	.	.	.
.	.	.	.	.	.	16b	.	.	.	.	.	.	.	.
8CJ	X 6	8e	.	8aJ	.	16a	.	.	.	.	.	.	.	.
.	X 5	.	.	.	.	16gJJ	.	.	.	.	.	.	.	.
=41	=41	=41	=41	=41	=41	=41	=41	=41	=41	=41	=41	=41	=41	=41
8DL	X #	4A	.	8.aL	.	8.f#XL	.	1ryy	1ryy	1ryy	1r	.	1ryy	1ryy
8E	.	.	.	.	.	.	.	.	.	.	.	.	.	.
.	.	.	.	16gJk	.	16gJk	.	.	.	.	.	.	.	.
!	!	!	!	!	!	!LO:TX:t=P:problem:mixed beam	!	!	!	!	!	!	!	!
8F#X	.	8AL	.	8f#XL	.	8a/L	.	.	.	.	.	.	.	.
8DJ	.	8dJ	.	16bL	.	16gg\L	.	.	.	.	.	.	.	.
.	.	.	.	16aJJ	.	16ff#X\JJ	.	.	.	.	.	.	.	.
8CL	.	8eL	.	16cc\LL	.	16eeLL	.	.	.	.	.	.	.	.
.	.	.	.	16b\	.	16dd	.	.	.	.	.	.	.	.
8E	.	8gJ	.	16a\	.	16cc	.	.	.	.	.	.	.	.
.	.	.	.	16g\JJ	.	16bJJ	.	.	.	.	.	.	.	.
8D	6 4	8dL	.	8gL	.	8bL	.	.	.	.	.	.	.	.
8DDJ	5 #	8dJ	.	8f#XJ	.	16aL	.	.	.	.	.	.	.	.
.	.	.	.	.	.	16gJJ	.	.	.	.	.	.	.	.
!	!	!LO:LB:g=original	!	!	!	!	!	!	!	!	!	!	!	!
=42	=42	=42	=42	=42	=42	=42	=42	=42	=42	=42	=42-	=42	=42	=42
!LO:TX:b:t=fine	!	!	!	!	!	!	!	!	!	!	!	!	!	!
!LO:TX:t=P:problem:mixed beam	!	!LO:TX:a:i:t=fine	!	!LO:TX:a:i:t=fine	!	!LO:TX:b:i:t=fine	!	!	!	!	!	!	!	!
8GG/;;L	X 6	4d;;	.	4g;;	.	4g;;	.	1ryy	1ryy	1ryy	4r	.	1ryy	1ryy
16G\L	.	.	.	.	.	.	.	.	.	.	.	.	.	.
16F#X\JJ	.	.	.	.	.	.	.	.	.	.	.	.	.	.
8GL	.	4r	.	4r	.	4r	.	.	.	.	8r	.	.	.
8D#XJ	X 6	.	.	.	.	.	.	.	.	.	8b	Fer-	.	.
4E	X n	2r	.	2r	.	2r	.	.	.	.	8g/	-vent	.	.
.	X 5	.	.	.	.	.	.	.	.	.	8e	pi-	.	.
4AA	X 6/	.	.	.	.	.	.	.	.	.	8ee	-a	.	.
.	.	.	.	.	.	.	.	.	.	.	8ff#X	col-	.	.
!LO:LB:g=original	!	!	!	!	!	!	!	!	!	!	!LO:LB:g=original	!	!	!
=43	=43	=43-	=43	=43-	=43	=43	=43	=43	=43	=43	=43	=43	=43	=43
4BB	X #	1r	.	1r	.	1r	.	1ryy	1ryy	1ryy	8.dd#X	-lo-	1ryy	1ryy
.	.	.	.	.	.	.	.	.	.	.	16ee	-qvi-	.	.
8r	.	.	.	.	.	.	.	.	.	.	8ff#X,	-a,	.	.
8B	X #	.	.	.	.	.	.	.	.	.	8b	caſ-	.	.
8EL	X n	.	.	.	.	.	.	.	.	.	(>16ggLL	-tum	.	.
.	.	.	.	.	.	.	.	.	.	.	16ff#JJ)	.	.	.
8GJ	X 6	.	.	.	.	.	.	.	.	.	(>16ggLL	cor-	.	.
.	.	.	.	.	.	.	.	.	.	.	16eeJJ)	.	.	.
8AL	.	.	.	.	.	.	.	.	.	.	(>16eeLL	-re	.	.
.	.	.	.	.	.	.	.	.	.	.	16dd#JJ)	.	.	.
8EJ	6/ 5	.	.	.	.	.	.	.	.	.	(>16eeLL	do-	.	.
.	.	.	.	.	.	.	.	.	.	.	16cc#XJJ)	.	.	.
=44	=44	=44-	=44	=44-	=44	=44-	=44	=44	=44	=44	=44	=44	=44	=44
4F#X	X #	2r	.	4r	.	4r	.	1ryy	1ryy	1ryy	(>16cc#XLL	-len-	1ryy	1ryy
.	.	.	.	.	.	.	.	.	.	.	16bJJ)	.	.	.
.	.	.	.	.	.	.	.	.	.	.	(>16cc#LL	-ti-	.	.
.	.	.	.	.	.	.	.	.	.	.	16bJJ)	.	.	.
4r	.	.	.	8r	.	8r	.	.	.	.	8a#X,	-a,	.	.
!	!	!	!	!	!LO:DY:b:t=piano	!	!LO:DY:a:t=Piano	!	!	!	!	!	!	!
.	.	.	.	8a#X	p	8cc#X	p	.	.	.	8ff#X	mun-	.	.
!	!	!	!	!LO:SIC:custos b:v	!	!	!	!	!	!	!	!	!	!
!	!	!	!	!LO:LB:g=original	!	!	!	!	!	!	!	!	!	!
2r	.	8r	.	(<16bLL	.	(>16ddLL	.	.	.	.	4.ff#	-di	.	.
.	.	.	.	16a#X)	.	16cc#X)	.	.	.	.	.	.	.	.
!	!	!	!LO:DY:a:t=Piano	!	!	!	!	!	!	!	!	!	!	!
.	.	8f#X	p	(<16b	.	(>16dd	.	.	.	.	.	.	.	.
.	.	.	.	16a#XJJ)	.	16cc#JJ)	.	.	.	.	.	.	.	.
.	.	8BL	.	(<16bLL	.	(>16ddLL	.	.	.	.	.	.	.	.
.	.	.	.	16a#X)	.	16cc#X)	.	.	.	.	.	.	.	.
.	.	8f#XJ	.	(<16b	.	(>16dd	.	.	.	.	8ff#	vi-	.	.
.	.	.	.	16a#XJJ)	.	16cc#JJ)	.	.	.	.	.	.	.	.
=45	=45	=45	=45	=45	=45	=45	=45	=45	=45	=45	=45	=45	=45	=45
!	!	!	!	!	!	!	!	!	!	!	!LO:SIC:s=4.ff#	!	!	!
4r	.	8BL	.	(<16bLL	.	(>16ddLL	.	1ryy	1ryy	1ryy	4.ffT	-le-	1ryy	1ryy
.	.	.	.	16a#X)	.	16cc#X)	.	.	.	.	.	.	.	.
.	.	8f#XJ	.	(<16b	.	(>16dd	.	.	.	.	.	.	.	.
.	.	.	.	16a#XJJ)	.	16cc#XJJ)	.	.	.	.	.	.	.	.
8r	.	8f#	.	8a#X	.	8cc#	.	.	.	.	.	.	.	.
!	!	!	!	!	!	!	!	!	!	!	!LO:SIC:s=8ff#	!	!	!
8F#X	X #	8r	.	8r	.	8r	.	.	.	.	8ff	-scunt	.	.
!LO:TX:t=P:problem:mixed beam	!	!	!	!	!	!	!	!	!	!	!LO:SIC:s=8ff#	!	!	!
8B\L	X n	2r	.	2r	.	2r	.	.	.	.	8ffL	gau-	.	.
8BB/J	.	.	.	.	.	.	.	.	.	.	16eeL	.	.	.
.	.	.	.	.	.	.	.	.	.	.	16ddJJ	.	.	.
4E	X 6/	.	.	.	.	.	.	.	.	.	16cc#XLL	.	.	.
.	X 5	.	.	.	.	.	.	.	.	.	16dd	.	.	.
.	.	.	.	.	.	.	.	.	.	.	16cc#	.	.	.
.	.	.	.	.	.	.	.	.	.	.	16bJJ	.	.	.
!	!	!	!	!	!	!	!	!	!	!	!LO:PB:g=original	!	!	!
=46	=46	=46	=46	=46	=46	=46-	=46	=46	=46	=46	=46	=46	=46	=46
8F#XL	X #	1r	.	1r	.	1r	.	1ryy	1ryy	1ryy	8.a#X	.	1ryy	1ryy
16A#XL	.	.	.	.	.	.	.	.	.	.	.	.	.	.
16G#XJJ	.	.	.	.	.	.	.	.	.	.	16b	-di-	.	.
8A#XL	.	.	.	.	.	.	.	.	.	.	8cc#X	-a	.	.
8F#XJ	.	.	.	.	.	.	.	.	.	.	8cc#	vi-	.	.
8BL	X n	.	.	.	.	.	.	.	.	.	8dd	-le-	.	.
8EJ	X 6/	.	.	.	.	.	.	.	.	.	(>16cc#XLL	-scunt	.	.
.	X 5	.	.	.	.	.	.	.	.	.	16bJJ)	.	.	.
4F#X	5 4	.	.	.	.	.	.	.	.	.	8.a#X	gau-	.	.
.	X #	.	.	.	.	.	.	.	.	.	16a#	-di-	.	.
=47	=47	=47	=47	=47	=47	=47-	=47	=47	=47	=47	=47	=47	=47	=47
!	!	!	!	!	!LO:DY:a:t=fortè	!	!LO:DY:a:t=Fortè	!	!	!	!	!	!	!
4BB	X n	2r	.	4r	f	8bL	f	1ryy	1ryy	1ryy	4b	-a	1ryy	1ryy
.	.	.	.	.	.	16bL	.	.	.	.	.	.	.	.
.	.	.	.	.	.	16cc#XJJ	.	.	.	.	.	.	.	.
4r	.	.	.	8r	.	16ddLL	.	.	.	.	4r	.	.	.
.	.	.	.	.	.	16ee	.	.	.	.	.	.	.	.
.	.	.	.	16bLL	.	16dd	.	.	.	.	.	.	.	.
.	.	.	.	16cc#XJJ	.	16eeJJ	.	.	.	.	.	.	.	.
!	!	!	!	!	!	!LO:SIC:custos ff#:v	!	!	!	!	!	!	!	!
!	!	!	!	!	!	!LO:LB:g=original	!	!	!	!	!	!	!	!
!	!	!	!LO:DY:a:t=Fortè	!	!	!	!	!	!	!	!	!	!	!
8BL	.	8r	f	8ddL	.	8ff#XL	.	.	.	.	2r	.	.	.
8B	.	8f#XL	.	8ddJ	.	8ff#J	.	.	.	.	.	.	.	.
8B	.	8f#	.	8ddL	.	8ff#L	.	.	.	.	.	.	.	.
8F#XJ	X #	8f#J	.	16eeL	.	16gg#XL	.	.	.	.	.	.	.	.
.	.	.	.	16cc#XJJ	.	16aa#XJJ	.	.	.	.	.	.	.	.
=48	=48	=48	=48	=48	=48	=48	=48	=48	=48	=48	=48-	=48	=48	=48
!LO:TX:t=P:problem:mixed beam	!	!	!	!	!	!	!	!	!	!	!	!	!	!
8BB/L	X n	8f#XL	.	8ddL	.	8bbL	.	1ryy	1ryy	1ryy	1r	.	1ryy	1ryy
8F#X\J	X #	8f#	.	16ff#XL	.	16aa#XL	.	.	.	.	.	.	.	.
.	.	.	.	16eeJJ	.	16ggJJ	.	.	.	.	.	.	.	.
!LO:TX:t=P:problem:mixed beam	!	!	!	!	!	!	!	!	!	!	!	!	!	!
8B\L	X n	8f#	.	8ddL	.	8ff#XL	.	.	.	.	.	.	.	.
8BB/J	.	8f#J	.	8bJ	.	16bbL	.	.	.	.	.	.	.	.
.	.	.	.	.	.	16ddJJ	.	.	.	.	.	.	.	.
8F#XL	7: #:	8a#XL	.	8cc#XL	.	8eeL	.	.	.	.	.	.	.	.
8F#	.	8a#	.	16a#XL	.	16cc#XL	.	.	.	.	.	.	.	.
.	.	.	.	16bJJ	.	16ddJJ	.	.	.	.	.	.	.	.
8F#	.	8a#	.	8cc#XL	.	8eeL	.	.	.	.	.	.	.	.
8F#J	.	8a#J	.	8cc#J	.	8eeJ	.	.	.	.	.	.	.	.
!LO:LB:g=original	!	!	!	!	!	!	!	!	!	!	!	!	!	!
=49	=49	=49	=49	=49	=49	=49	=49	=49	=49	=49	=49-	=49	=49	=49
!	!	!	!	!LO:SIC:s=8cc#	!	!	!	!	!	!	!	!	!	!
8F#XL	7 #	8a#XL	.	8ccL	.	8eeL	.	1ryy	1ryy	1ryy	4r	.	1ryy	1ryy
8F#J	.	8f#XJ	.	16bL	.	16ddL	.	.	.	.	.	.	.	.
.	.	.	.	16a#XJJ	.	16cc#XJJ	.	.	.	.	.	.	.	.
4BB	X n	8f#L	.	8bL	.	8ddL	.	.	.	.	8r	.	.	.
!	!	!	!	!	!	!	!LO:DY:a:t=Piano	!	!	!	!	!	!	!
.	.	8bJ	.	8ddJ	.	8ff#XJ	p	.	.	.	8ff#X	Mun-	.	.
!	!	!	!	!LO:SIC:custos ee:v	!	!	!	!	!	!	!	!	!	!
!	!	!	!	!LO:LB:g=original	!	!	!	!	!	!	!	!	!	!
!	!	!	!	!	!LO:DY:a:t=Piano	!	!	!	!	!	!	!	!	!
2r	.	4e	.	(>16eeLL	p	(>16ggLL	.	.	.	.	(>16ggLL	-di	.	.
.	.	.	.	16dd)	.	16ff#)	.	.	.	.	16ff#XJJ)	.	.	.
.	.	.	.	(>16ee	.	(>16gg	.	.	.	.	(>16ggLL	vi-	.	.
.	.	.	.	16ddJJ)	.	16ff#JJ)	.	.	.	.	16ff#XJJ)	.	.	.
.	.	8r	.	(>16eeLL	.	(>16ggLL	.	.	.	.	(16ggLL	-le-	.	.
.	.	.	.	16dd)	.	16ff#X)	.	.	.	.	16ff#XJJ)	.	.	.
!	!	!	!LO:DY:a:t=Piano	!	!	!	!	!	!	!	!	!	!	!
.	.	8e	p	(>16ee	.	(>16gg	.	.	.	.	(>16ggLL	-scunt	.	.
.	.	.	.	16ddJJ)	.	16ff#JJ)	.	.	.	.	16ff#XJJ)	.	.	.
=50-	=50-	=50	=50	=50	=50	=50	=50	=50	=50	=50	=50	=50	=50	=50
!LO:N:vis=0	!	!	!	!	!	!	!	!	!	!	!	!	!	!
0r	.	8eL	.	(>16eeLL	.	(>16ggLL	.	1ryy	1ryy	1ryy	(>16ggLL	gau-	1ryy	1ryy
.	.	.	.	16dd)	.	16ff#X)	.	.	.	.	16ff#XJJ)	.	.	.
.	.	8eJ	.	(>16ee	.	(>16gg	.	.	.	.	(>16ggLL	-di-	.	.
.	.	.	.	16ddJJ)	.	16ff#JJ)	.	.	.	.	16ff#XJJ)	.	.	.
.	.	8aL	.	8cc#XL	.	8eeL	.	.	.	.	8ee,	-a,	.	.
.	.	8aJ	.	8cc#J	.	8eeJ	.	.	.	.	8ee	cae-	.	.
.	.	4d	.	(>16ddLL	.	(>16ff#XLL	.	.	.	.	(>16ff#XLL	-lum	.	.
.	.	.	.	16cc#X)	.	16ee)	.	.	.	.	16eeJJ)	.	.	.
.	.	.	.	(>16dd	.	(>16ff#	.	.	.	.	(>16ff#XLL	fun-	.	.
.	.	.	.	16cc#JJ)	.	16eeJJ)	.	.	.	.	16eeJJ)	.	.	.
!	!	!LO:SIC:custos d:v	!	!	!	!	!	!	!	!	!	!	!	!
!	!	!LO:LB:g=original	!	!	!	!	!	!	!	!	!	!	!	!
.	.	8r	.	(>16ddLL	.	(>16ff#XLL	.	.	.	.	(>16ff#XLL	-dit	.	.
.	.	.	.	16cc#X)	.	16ee)	.	.	.	.	16eeJJ)	.	.	.
.	.	8d	.	(>16dd	.	(>16ff#	.	.	.	.	(>16ff#XLL	tri-	.	.
.	.	.	.	16cc#JJ)	.	16eeJJ)	.	.	.	.	16eeJJ)	.	.	.
!	!	!	!	!	!	!	!	!	!	!	!LO:LB:g=original	!	!	!
=51	=51	=51	=51	=51	=51	=51	=51	=51	=51	=51	=51	=51	=51	=51
.	.	8dL	.	(>16ddLL	.	(>16ff#XLL	.	1ryy	1ryy	1ryy	(>16ff#XLL	-pu-	1ryy	1ryy
.	.	.	.	16cc#X)	.	16ee)	.	.	.	.	16eeJJ)	.	.	.
.	.	8dJ	.	(>16dd	.	(>16ff#	.	.	.	.	(>16ff#XLL	-di-	.	.
.	.	.	.	16cc#JJ)	.	16eeJJ)	.	.	.	.	16eeJJ)	.	.	.
!	!	!	!	!	!	!LO:SIC:custos dd:v	!	!	!	!	!	!	!	!
!	!	!	!	!	!	!LO:LB:g=original	!	!	!	!	!	!	!	!
.	.	8gL	.	8b/L	.	(>16ddLL	.	.	.	.	8dd,	-a.	.	.
.	.	.	.	.	.	16ee)	.	.	.	.	.	.	.	.
.	.	8bJ	.	8b/J	.	(>16ff#X	.	.	.	.	(>16ff#XLL	fun-	.	.
.	.	.	.	.	.	16eeJJ)	.	.	.	.	16eeJJ)	.	.	.
.	.	4A	.	4b/	.	4ff#	.	.	.	.	4dd#X	-dit	.	.
.	.	4r	.	4r	.	4r	.	.	.	.	8r	.	.	.
.	.	.	.	.	.	.	.	.	.	.	8b	cae-	.	.
=52-	=52-	=52	=52	=52	=52	=52	=52	=52	=52	=52	=52	=52	=52	=52
8r	.	1r	.	1r	.	1r	.	1ryy	1ryy	1ryy	8ee	-lum	1ryy	1ryy
8BB	X #	.	.	.	.	.	.	.	.	.	8dd#X	fun-	.	.
8EL	X n	.	.	.	.	.	.	.	.	.	8ee	-dit	.	.
*	*	*	*	*	*	*	*	*	*	*	*	*ij	*	*
8D#XJ	X 6	.	.	.	.	.	.	.	.	.	8ff#X	fun-	.	.
!LO:TX:t=P:problem:mixed beam	!	!	!	!	!	!	!	!	!	!	!	!	!	!
8E\L	X n	.	.	.	.	.	.	.	.	.	8gg	-dit	.	.
*	*	*	*	*	*	*	*	*	*	*	*	*Xij	*	*
8A\	X 6/	.	.	.	.	.	.	.	.	.	(>16ff#XLL	tri-	.	.
.	X 5	.	.	.	.	.	.	.	.	.	16eeJJ)	.	.	.
8B\	X #	.	.	.	.	.	.	.	.	.	8.dd#Xt	-pu-	.	.
8BB/J	.	.	.	.	.	.	.	.	.	.	.	.	.	.
.	.	.	.	.	.	.	.	.	.	.	16dd#	-di-	.	.
=53	=53	=53	=53	=53	=53	=53-	=53	=53	=53	=53	=53	=53	=53	=53
4E	.	4r	.	4r	.	4r	.	1ryy	1ryy	1ryy	4ee,	-a,	1ryy	1ryy
4r	.	8r	.	8r	.	8r	.	.	.	.	8b	cae-	.	.
!	!	!	!LO:DY:b:t=piano	!	!LO:DY:a	!	!	!	!	!	!	!	!	!
!	!	!	!	!	!LO:DY:a:t=Piano	!	!LO:DY:b:t=piano	!	!	!	!	!	!	!
.	.	8B	p	8dd	p	8ff#X	p	.	.	.	8b	-lum	.	.
*	*	*	*	*	*	*	*	*	*	*	*2\right	*	*	*
!	!	!	!	!LO:SIC:custos ee:v	!	!	!	!	!	!	!	!	!	!
!	!	!	!	!LO:LB:g=original	!	!	!	!	!	!	!	!	!	!
2r	.	8eL	.	(>16eeLL	.	(>16ggLL	.	.	.	.	2bt	cae-	.	.
.	.	.	.	16dd)	.	16ff#X)	.	.	.	.	.	.	.	.
.	.	8bJ	.	(>16ee	.	(>16gg	.	.	.	.	.	.	.	.
.	.	.	.	16ddJJ)	.	16ff#JJ)	.	.	.	.	.	.	.	.
.	.	8eL	.	(>16eeLL	.	(>16ggLL	.	.	.	.	.	.	.	.
.	.	.	.	16dd)	.	16ff#X)	.	.	.	.	.	.	.	.
.	.	8bJ	.	(>16ee	.	(>16gg	.	.	.	.	.	.	.	.
.	.	.	.	16ddJJ)	.	16ff#JJ)	.	.	.	.	.	.	.	.
=54	=54	=54	=54	=54	=54	=54	=54	=54	=54	=54	=54	=54	=54	=54
4E	6/ 4# 2#	4e	.	4c#X	.	4f#X	.	1ryy	1ryy	1ryy	4a#X	-lum	1ryy	1ryy
4r	.	4r	.	4r	.	4r	.	.	.	.	8r	.	.	.
.	.	.	.	.	.	.	.	.	.	.	8ff#X	cae-	.	.
8r	.	2r	.	2r	.	2r	.	.	.	.	8b	-lum	.	.
*	*	*	*	*	*	*	*	*	*	*	*	*ij	*	*
8F#X	X #	.	.	.	.	.	.	.	.	.	8cc#X	cae-	.	.
8BBL	X n	.	.	.	.	.	.	.	.	.	8dd	-lum	.	.
*	*	*	*	*	*	*	*	*	*	*	*	*Xij	*	*
8C#XJ	X 6/	.	.	.	.	.	.	.	.	.	8a#X	fun-	.	.
!	!	!	!	!	!	!	!	!	!	!	!LO:LB:g=original	!	!	!
=55	=55	=55-	=55	=55-	=55	=55-	=55	=55	=55	=55	=55	=55	=55	=55
8DL	X 6	1r	.	1r	.	1r	.	1ryy	1ryy	1ryy	8b	-dit	1ryy	1ryy
8EJ	x 6/	.	.	.	.	.	.	.	.	.	8cc#X	tri-	.	.
!LO:TX:t=P:problem:mixed beam	!	!	!	!	!	!	!	!	!	!	!	!	!	!
8F#X\L	6 4	.	.	.	.	.	.	.	.	.	8dd	-pu-	.	.
8FF#X/J	5 #	.	.	.	.	.	.	.	.	.	(>16cc#XLL	-di-	.	.
.	.	.	.	.	.	.	.	.	.	.	16bJJ)	.	.	.
!LO:TX:t=P:problem:mixed beam	!	!	!	!	!	!	!	!	!	!	!	!	!	!
8BB/L	.	.	.	.	.	.	.	.	.	.	4b	-a	.	.
8B\J	.	.	.	.	.	.	.	.	.	.	.	.	.	.
8AL	.	.	.	.	.	.	.	.	.	.	4r	.	.	.
16BL	.	.	.	.	.	.	.	.	.	.	.	.	.	.
16AJJ	.	.	.	.	.	.	.	.	.	.	.	.	.	.
!LO:TX:a:t=P:problem:w źródle "Da Capo Aria al segno fine" zapisane na pięiolinii, za ostatnim taktem tej części	!	!LO:TX:a:t=P:problem:w źródle "Da Capo Aria al segno fine" zapisane na pięiolinii, a "Seque Tutti" pod pięciolinią, na prawo od poprzedniej notatki	!	!LO:TX:a:t=P:problem:w źródle "Da Capo Aria al segno fine" zapisane na pięiolinii	!	!LO:TX:a:t=P:problem:w źródle "Da Capo Aria al segno fine" zapisane na pięiolinii	!	!	!	!	!LO:TX:a:t=P:problem:w źródle "Da Capo Aria al segno fine" zapisane na pięiolinii	!	!	!
!LO:TX:b:i:t=Da Capo Aria \nal ſegno fine	!	!LO:TX:b:i:t=Da Capo Aria \nal ſegno fine	!	!LO:TX:b:i:t=Da Capo Aria \nal ſegno fine	!LO:TX:b:i:t=Da Capo Aria \nal ſegno fine	!LO:TX:b:i:t=Da Capo Aria \nal ſegno fine	!	!	!	!	!LO:TX:b:i:t=Da Capo Aria \nal ſegno fine	!	!	!
!	!	!LO:TX:b:i:t=Seque Tutti	!	!	!	!	!	!	!	!	!	!	!	!
=:||	=:||	=:||	=||	=:||	=||	=:||	=||	=||	=||	=||	=:||	=||	=||	=||
*-	*-	*-	*-	*-	*-	*-	*-	*-	*-	*-	*-	*-	*-	*-
!!!system-decoration: [g1][g2][g3]s10
!!!RDF**kern: > = above
!!!RDF**kern: < = below
!!!EED: Antoni Szymański
!!!EST: 2020-11-09
!!!ENC: Andrzej Borzym
!!!END: 2020-05-06
